la/reply-all-solid.svg

<svg xmlns="http://www.w3.org/2000/svg" viewBox="0 0 32 32" height="1em" width="1em">
  <path d="M 10.28125 5.28125 L 2.28125 13.28125 L 1.59375 14 L 2.28125 14.71875 L 10.28125 22.71875 L 11.71875 21.28125 L 4.4375 14 L 11.71875 6.71875 Z M 15.28125 5.28125 L 7.28125 13.28125 L 6.59375 14 L 7.28125 14.71875 L 15.28125 22.71875 L 16.71875 21.28125 L 10.4375 15 L 23 15 C 25.773438 15 28 17.226563 28 20 C 28 22.773438 25.773438 25 23 25 L 23 27 C 26.855469 27 30 23.855469 30 20 C 30 16.144531 26.855469 13 23 13 L 10.4375 13 L 16.71875 6.71875 Z"/>
</svg>

<svg xmlns="http://www.w3.org/2000/svg" viewBox="0 0 32 32" height="1em" width="1em">
  <path d="m10.281 5.281-8 8-.687.719.687.719 8 8 1.438-1.438L4.438 14l7.28-7.281Zm5 0-8 8-.687.719.687.719 8 8 1.438-1.438L10.437 15H23c2.773 0 5 2.227 5 5s-2.227 5-5 5v2c3.855 0 7-3.145 7-7s-3.145-7-7-7H10.437l6.282-6.281Z"/>
</svg>
